gtk/icons/gesture-swipe-right-symbolic.svg

<svg xmlns="http://www.w3.org/2000/svg" width="64" height="64">
  <path d="M46.037 10.148v7H30.54C29.34 13.585 25.968 11 22.012 11c-4.953 0-9 4.047-9 9 0 3.501 2.027 6.543 4.963 8.03V47h-1v-7.814c0-2.32-1.784-4.186-4-4.186s-4 1.867-4 4.186V60h40c2.216 0 4-1.867 4-4.186V34.186c0-2.32-1.784-4.186-4-4.186s-4 1.867-4 4.186V39h-1v-7.814c0-2.32-1.673-4.186-3.752-4.186h-.494c-2.08 0-3.754 1.867-3.754 4.186V39h-1v-7.814c0-2.32-1.784-4.186-4-4.186s-4 1.867-4 4.186V39h-1V28.064a9.046 9.046 0 0 0 4.765-5.916h15.297v7l10-9.5zM22.012 14c3.331 0 6 2.669 6 6a5.976 5.976 0 0 1-2.037 4.512v-4.326c0-2.32-1.784-4.186-4-4.186s-4 1.867-4 4.186v4.257A5.974 5.974 0 0 1 16.012 20c0-3.331 2.668-6 6-6z"/>
</svg>

<svg
        xmlns='http://www.w3.org/2000/svg'
        xmlns:svg='http://www.w3.org/2000/svg'
        width='64'
        height='64'>
  <path
          clip-path='none'
          fill='url(#gpa:foreground) rgb(0,0,0)'
          fill-opacity='1'
          fill-rule='nonzero'
          d='M 46.037 10.148 L 46.037 17.148 L 30.54 17.148 C 29.34 13.585, 25.968 11, 22.012 11 C 17.059 11, 13.012 15.047, 13.012 20 C 13.012 23.501, 15.039 26.543, 17.975 28.03 L 17.975 47 L 16.975 47 L 16.975 39.186 C 16.975 36.866, 15.191 35, 12.975 35 C 10.759 35, 8.975 36.867, 8.975 39.186 L 8.975 60 L 48.975 60 C 51.191 60, 52.975 58.133, 52.975 55.814 L 52.975 34.186 C 52.975 31.866, 51.191 30, 48.975 30 C 46.759 30, 44.975 31.867, 44.975 34.186 L 44.975 39 L 43.975 39 L 43.975 31.186 C 43.975 28.866, 42.302 27, 40.223 27 L 39.729 27 C 37.649 27, 35.975 28.867, 35.975 31.186 L 35.975 39 L 34.975 39 L 34.975 31.186 C 34.975 28.866, 33.191 27, 30.975 27 C 28.759 27, 26.975 28.867, 26.975 31.186 L 26.975 39 L 25.975 39 L 25.975 28.064 C 28.3545 26.8867, 30.0967 24.7237, 30.74 22.148 L 46.037 22.148 L 46.037 29.148 L 56.037 19.648 Z M 22.012 14 C 25.343 14, 28.012 16.669, 28.012 20 C 28.0172 21.7277, 27.2743 23.3732, 25.975 24.512 L 25.975 20.186 C 25.975 17.866, 24.191 16, 21.975 16 C 19.759 16, 17.975 17.867, 17.975 20.186 L 17.975 24.443 C 16.7209 23.3069, 16.0075 21.6922, 16.012 20 C 16.012 16.669, 18.68 14, 22.012 14 Z'
          class='foreground foreground-fill'>
  </path>
</svg>
